X: 10062
Q: "With spirit."
M: 2/4
L: 1/8
K: G
d |\
e>deg | d2cB | cAA>B | cAAd |\
edeg | d2cB | A>GGA | B>G "^D.C."G |]


